X:288
L:1/8
M:2/4
K:G
 d/ |"G" d>d d>d | (3gdB (3dBG |"D7" d>d d>d | d2 g>g"^A" |:"D7" gf/f/ ag/g/ | gf/f/ fe/e/ | 
"G" ed/d/ dB | .d2 z z/ d/ |"D7" dF/F/ Fg | .f2 c>e |"G" dd/d/ dc' | b2 gg/g/ |"D7" gf/f/ ag/g/ | 
 gf/f/ fe/e/ |"G" ed/d/ dB | d2 z z/ g/ |"C" ga/g/ fe |"G" dd/B/ GB |"D7" ed/d/ df |1"G" g2 g>g :|2 
"G" g2 z2 |:[K:D]"^B""D" f2 f2 | fg/f/ e>d | cd b>f |"A7" a2 g2 | g2 g2 | ga/g/ fe | ^de c'>b | 
"D" a2 ag | f2 f2 | fg/f/ ed | cd d'>c' |"G" c'2 b2 | d'2 c'>b |"D" aa/f/ df |"A7" b>a ac |1 
"D" d2 z2 :|2"D" d2"_>Teil A" g>g |]:[K:C]"^C""C" G2 A>G | c4 | G2 A>G | e4 | G2 A>G | e2 g2 | 
"G7" g3 B | B4 | G2 A>G | B4 | G2 A>G | d4 | G2 A>G | B2 d2 |"C" a3 g | e4 | G2 A>G | c4 | G2 A>G | 
 e4 |"E7" e2 f>e | ^g2 b2 |"Am" d'3 c' | a4 |"F" a2 b>a | c'2 a2 |"C" a3 g | e2 c2 | g2 a>g | 
"G7" e3 d |"C" c2 c2 | c2"_Fine" z2 :|

